icons/icons/macOS-icons/actions/22/amarok_cart_remove.svg

<svg version="1.1" viewBox="0 0 22 22" xmlns="http://www.w3.org/2000/svg">
 <defs>
  <style id="current-color-scheme" type="text/css">.ColorScheme-Text {
        color:#363636;
      }</style>
 </defs>
 <path d="m14.834 14-0.83398 0.83398 1.666 1.666-1.666 1.666 0.83398 0.83398 1.666-1.666 1.666 1.666 0.83398-0.83398-1.666-1.666 1.666-1.666-0.83398-0.83398-1.666 1.666-1.666-1.666z" fill="#da4453"/>
 <path class="ColorScheme-Text" d="m11 3c-1.6569 0-3 1.3431-3 3h-2c-1.108 0-2 0.892-2 2v9c0 1.108 0.892 2 2 2h7v-1h-7c-0.554 0-1-0.446-1-1v-9c0-0.554 0.446-1 1-1h2v1.0879c-0.59859 0.21163-0.99911 0.77721-1 1.4121 0 0.82842 0.67157 1.5 1.5 1.5s1.5-0.67158 1.5-1.5c-8.908e-4 -0.6349-0.40141-1.2005-1-1.4121v-1.0879h4v1.0879c-0.59859 0.21163-0.99911 0.77721-1 1.4121 0 0.82842 0.67158 1.5 1.5 1.5s1.5-0.67158 1.5-1.5c-8.91e-4 -0.6349-0.40141-1.2005-1-1.4121v-1.0879h2c0.554 0 1 0.446 1 1v5h1v-5c0-1.108-0.892-2-2-2h-2c0-1.6569-1.3432-3-3-3zm0 1c1.1046 0 2 0.89543 2 2h-4c0-1.1046 0.89543-2 2-2zm-2.5 5c0.27614 0 0.5 0.22386 0.5 0.5s-0.22386 0.5-0.5 0.5-0.5-0.22386-0.5-0.5 0.22386-0.5 0.5-0.5zm5 0c0.27614 0 0.5 0.22386 0.5 0.5s-0.22386 0.5-0.5 0.5-0.5-0.22386-0.5-0.5 0.22386-0.5 0.5-0.5z" fill="currentColor"/>
</svg>

<svg xmlns="http://www.w3.org/2000/svg" viewBox="0 0 22 22">
  <defs id="defs3051">
    <style type="text/css" id="current-color-scheme">
      .ColorScheme-Text {
        color:#dedede;
      }
      </style>
  </defs>
 <path 
     style="fill:currentColor;fill-opacity:1;stroke:none" 
     d="M 11 3 A 3 3 0 0 0 8 6 L 5 6 L 5 7 L 5 18 L 5 19 L 13 19 L 13 18 L 6 18 L 6 7 L 8 7 L 8 8.0878906 A 1.5 1.5 0 0 0 7 9.5 A 1.5 1.5 0 0 0 8.5 11 A 1.5 1.5 0 0 0 10 9.5 A 1.5 1.5 0 0 0 9 8.0878906 L 9 7 L 13 7 L 13 8.0878906 A 1.5 1.5 0 0 0 12 9.5 A 1.5 1.5 0 0 0 13.5 11 A 1.5 1.5 0 0 0 15 9.5 A 1.5 1.5 0 0 0 14 8.0878906 L 14 7 L 16 7 L 16 13 L 17 13 L 17 7 L 17 6 L 14 6 A 3 3 0 0 0 11 3 z M 11 4 A 2 2 0 0 1 13 6 L 9 6 A 2 2 0 0 1 11 4 z M 8.5 9 A 0.5 0.5 0 0 1 9 9.5 A 0.5 0.5 0 0 1 8.5 10 A 0.5 0.5 0 0 1 8 9.5 A 0.5 0.5 0 0 1 8.5 9 z M 13.5 9 A 0.5 0.5 0 0 1 14 9.5 A 0.5 0.5 0 0 1 13.5 10 A 0.5 0.5 0 0 1 13 9.5 A 0.5 0.5 0 0 1 13.5 9 z "
     class="ColorScheme-Text"
     />
    <path
     style="fill:#da4453;fill-opacity:1;stroke:none"
     d="M 14.833984 14 L 14 14.833984 L 15.666016 16.5 L 14 18.166016 L 14.833984 19 L 16.5 17.333984 L 18.166016 19 L 19 18.166016 L 17.333984 16.5 L 19 14.833984 L 18.166016 14 L 16.5 15.666016 L 14.833984 14 z "
     />
</svg>
